static/images/user-logos/linkerd.svg

<svg width="173" height="67" viewBox="0 0 173 67" xmlns="http://www.w3.org/2000/svg"><title>primary</title><defs><linearGradient x1="50%" y1="0%" x2="50%" y2="100%" id="a"><stop stop-color="#4AD8AC" offset="0%"/><stop stop-color="#4076C4" offset="100%"/></linearGradient></defs><g fill="none" fill-rule="evenodd"><text font-family="DINNextLTPro-Medium, DIN Next LT Pro" font-size="30" font-weight="400"><tspan x="82.48" y="41" fill="#424242">linker</tspan> <tspan x="158.65" y="41" fill="#9A9A9A">d</tspan></text><g transform="translate(0 12.5)"><path fill="#40A0B4" d="M66.9987 27.3407L71.9987 30.2272 71.9987 3.1147 66.9987 0.2272z"/><path fill="#40A0B4" d="M0 3.11495L0 30.22895 5 27.34095 5 0.22795z"/><path fill="#40A0B4" d="M22.00275 51.61325L27.00275 54.49975 38.90775 47.62625 33.90775 44.73975z"/><path fill="#338090" d="M29.0018 47.5723L34.0018 50.4593 38.9078 47.6263 33.9078 44.7398z"/></g><g transform="translate(24.5 37.5)" fill="#45C1A8"><path d="M22.99865 18.2405L22.99865 12.467 1.47015 0.037 0.00015 0.8855 0.00265 0.887 0.00265 4.9635z"/><path d="M0.0025 17.66545L20.5 29.49995 25.501 26.61345 0.0025 11.89145z"/></g><g fill="#7CE1C0"><path d="M54.76275 19.79275L59.76225 22.67925 71.99875 15.61475 66.99775 12.72875z"/><path d="M38.5284 34.9394L33.5284 32.0529 22.0004 38.7089 27.0004 41.5954z"/><path d="M61.0011 9.2651L56.0001 6.3786 43.7651 13.4431 48.7651 16.3301z"/><path d="M27.5309 28.5898L22.5309 25.7033 11.0029 32.3593 16.0029 35.2458z"/><path d="M32.76765 7.09375L37.76765 9.98025 50.00365 2.91575 45.00265 0.02925z"/><path d="M0.0054 26.0095L5.0054 28.896 16.5334 22.2405 11.5334 19.3535z"/></g><g transform="translate(0 26)" fill="url(#a)"><path d="M66.9987 2.894L66.9987 28.2985 71.9987 25.4115 71.9987 0.0075z"/><path d="M60.9985 31.7623L60.9985 6.3583 55.9985 9.2448 55.9985 34.6493z"/><path d="M44.9982 15.5957L44.9982 41.0002 49.9987 38.1132 49.9987 12.7087z"/><path d="M22.00275 38.11325L27.00275 40.99975 27.00275 15.59625 22.00275 12.70875z"/><path d="M16.00275 9.2451L16.00275 34.6491 11.00275 31.7626 11.00275 6.3581z"/><path d="M0.0027 25.41155L5.0027 28.29805 5.0027 2.89405 0.0027 0.00705z"/></g><g transform="translate(7 19)" fill="#45C1A8"><path d="M21.9991 15.6678L26.9991 18.5543 31.5286 15.9393 26.5286 13.0528z"/><path d="M0.0042 2.9686L5.0042 5.8551 9.5332 3.2401 4.5337 0.3536z"/><path d="M11.0017 9.3182L16.0017 12.2047 20.5307 9.5897 15.5312 6.7032z"/></g><g fill="#A2EACF"><path d="M27.00045 0.0265L21.99995 2.913 66.99795 28.8935 71.99845 26.007z"/><path d="M16.00015 6.37755L11.00015 9.26405 55.99765 35.24455 60.99865 32.35805z"/><path d="M0 15.61495L44.9975 41.59545 49.9985 38.70895 5 12.72845z"/></g></g></svg>

<svg height="67" viewBox="0 0 173 67" width="173" xmlns="http://www.w3.org/2000/svg" xmlns:xlink="http://www.w3.org/1999/xlink"><linearGradient id="a" x1="50%" x2="50%" y1="0%" y2="100%"><stop offset="0" stop-color="#4ad8ac"/><stop offset="1" stop-color="#4076c4"/></linearGradient><g fill="none" fill-rule="evenodd"><text font-family="DINNextLTPro-Medium, DIN Next LT Pro" font-size="30" font-weight="400"><tspan fill="#424242" x="82.48" y="41">linker</tspan> <tspan fill="#9a9a9a" x="158.65" y="41">d</tspan></text><g transform="translate(0 12.5)"><g fill="#40a0b4"><path d="m66.9987 27.3407 5 2.8865v-27.1125l-5-2.8875z"/><path d="m0 3.11495v27.114l5-2.888v-27.113z"/><path d="m22.00275 51.61325 5 2.8865 11.905-6.8735-5-2.8865z"/></g><path d="m29.0018 47.5723 5 2.887 4.906-2.833-5-2.8865z" fill="#338090"/></g><g fill="#45c1a8" transform="translate(24.5 37.5)"><path d="m22.99865 18.2405v-5.7735l-21.5285-12.43-1.47.8485.0025.0015v4.0765z"/><path d="m.0025 17.66545 20.4975 11.8345 5.001-2.8865-25.4985-14.722z"/></g><g fill="#7ce1c0"><path d="m54.76275 19.79275 4.9995 2.8865 12.2365-7.0645-5.001-2.886z"/><path d="m38.5284 34.9394-5-2.8865-11.528 6.656 5 2.8865z"/><path d="m61.0011 9.2651-5.001-2.8865-12.235 7.0645 5 2.887z"/><path d="m27.5309 28.5898-5-2.8865-11.528 6.656 5 2.8865z"/><path d="m32.76765 7.09375 5 2.8865 12.236-7.0645-5.001-2.8865z"/><path d="m.0054 26.0095 5 2.8865 11.528-6.6555-5-2.887z"/></g><g fill="url(#a)" transform="translate(0 26)"><path d="m66.9987 2.894v25.4045l5-2.887v-25.404z"/><path d="m60.9985 31.7623v-25.404l-5 2.8865v25.4045z"/><path d="m44.9982 15.5957v25.4045l5.0005-2.887v-25.4045z"/><path d="m22.00275 38.11325 5 2.8865v-25.4035l-5-2.8875z"/><path d="m16.00275 9.2451v25.404l-5-2.8865v-25.4045z"/><path d="m.0027 25.41155 5 2.8865v-25.404l-5-2.887z"/></g><g fill="#45c1a8" transform="translate(7 19)"><path d="m21.9991 15.6678 5 2.8865 4.5295-2.615-5-2.8865z"/><path d="m.0042 2.9686 5 2.8865 4.529-2.615-4.9995-2.8865z"/><path d="m11.0017 9.3182 5 2.8865 4.529-2.615-4.9995-2.8865z"/></g><g fill="#a2eacf"><path d="m27.00045.0265-5.0005 2.8865 44.998 25.9805 5.0005-2.8865z"/><path d="m16.00015 6.37755-5 2.8865 44.9975 25.9805 5.001-2.8865z"/><path d="m0 15.61495 44.9975 25.9805 5.001-2.8865-44.9985-25.9805z"/></g></g></svg>
